X:159
T: Das schwarzbraune Bier (2-52), S. 140f
N: K1134
O: Luxemburg
S: KINTZELE, Guillaume: An der Ucht, Bd. 2, Luxemburg 1927]
N: in der Quelle mit einer 2. Stimme versehen
R: Scherz-, Spottlied]
M: 4/4
L: 1/16
K: G
D4 | G4G2G2G4G4 | G4F2E2D4
D4 | E4E2E2G4F2E2 | D4D2C2B,4
D4 | G8A8 | B8z4
G2A2 | B4B4B4d4 | d2c2c2B2A4
A3G | F3EE3ED4A3G | F3EE3ED4
D2D2 | D4B4B4D2D2 | D4B4B4
B2B2 | B6A2c4F4 | G8z4

